casedrop/img/media/google.svg

<svg width="22" height="15" viewBox="0 0 22 15" fill="none" xmlns="http://www.w3.org/2000/svg">
<path d="M7.30557 2.21955C7.86871 2.20381 8.31247 1.73457 8.2967 1.17146C8.28092 0.608343 7.81172 0.164615 7.2486 0.180337L7.30557 2.21955ZM1.48212 7.31994L2.50176 7.34714C2.50224 7.32905 2.50224 7.31083 2.50176 7.29274L1.48212 7.31994ZM7.27708 13.4399L7.2486 14.4595C7.26758 14.4601 7.28658 14.4601 7.30557 14.4595L7.27708 13.4399ZM13.0721 7.31994L14.0917 7.29274C14.077 6.74017 13.6248 6.29994 13.0721 6.29994V7.31994ZM7.27708 6.29994C6.71375 6.29994 6.25708 6.75663 6.25708 7.31994C6.25708 7.88325 6.71375 8.33994 7.27708 8.33994V6.29994ZM20.2855 4.84338C20.8488 4.84338 21.3055 4.38671 21.3055 3.82338C21.3055 3.26006 20.8488 2.80338 20.2855 2.80338V4.84338ZM17.8021 2.80338C17.2388 2.80338 16.7821 3.26006 16.7821 3.82338C16.7821 4.38671 17.2388 4.84338 17.8021 4.84338V2.80338ZM17.8021 4.84338C18.3655 4.84338 18.8221 4.38671 18.8221 3.82338C18.8221 3.26006 18.3655 2.80338 17.8021 2.80338V4.84338ZM15.3188 2.80338C14.7555 2.80338 14.2988 3.26006 14.2988 3.82338C14.2988 4.38671 14.7555 4.84338 15.3188 4.84338V2.80338ZM16.7821 3.82338C16.7821 4.38671 17.2388 4.84338 17.8021 4.84338C18.3655 4.84338 18.8221 4.38671 18.8221 3.82338H16.7821ZM18.8221 1.19994C18.8221 0.636617 18.3655 0.179943 17.8021 0.179943C17.2388 0.179943 16.7821 0.636617 16.7821 1.19994H18.8221ZM18.8221 3.82338C18.8221 3.26006 18.3655 2.80338 17.8021 2.80338C17.2388 2.80338 16.7821 3.26006 16.7821 3.82338H18.8221ZM16.7821 6.44546C16.7821 7.00877 17.2388 7.46546 17.8021 7.46546C18.3655 7.46546 18.8221 7.00877 18.8221 6.44546H16.7821ZM7.2486 0.180337C3.39674 0.28794 0.359926 3.49509 0.462484 7.34714L2.50176 7.29274C2.42917 4.56601 4.57888 2.29571 7.30557 2.21955L7.2486 0.180337ZM0.462484 7.29274C0.359926 11.1448 3.39674 14.352 7.2486 14.4595L7.30557 12.4204C4.57888 12.3442 2.42917 10.0738 2.50176 7.34714L0.462484 7.29274ZM7.30557 14.4595C11.1575 14.352 14.1942 11.1448 14.0917 7.29274L12.0523 7.34714C12.125 10.0738 9.97535 12.3442 7.2486 12.4204L7.30557 14.4595ZM13.0721 6.29994H7.27708V8.33994H13.0721V6.29994ZM20.2855 2.80338H17.8021V4.84338H20.2855V2.80338ZM17.8021 2.80338H15.3188V4.84338H17.8021V2.80338ZM18.8221 3.82338V1.19994H16.7821V3.82338H18.8221ZM16.7821 3.82338V6.44546H18.8221V3.82338H16.7821Z" fill="#67718E"/>
</svg>

<svg width="22" height="15" fill="none" xmlns="http://www.w3.org/2000/svg"><path d="M7.306 2.22A1.02 1.02 0 107.249.18l.057 2.04zm-5.824 5.1l1.02.027v-.054l-1.02.027zm5.795 6.12l-.028 1.02h.057l-.029-1.02zm5.795-6.12l1.02-.027a1.02 1.02 0 00-1.02-.993v1.02zM7.277 6.3a1.02 1.02 0 000 2.04V6.3zm13.008-1.457a1.02 1.02 0 000-2.04v2.04zm-2.483-2.04a1.02 1.02 0 000 2.04v-2.04zm0 2.04a1.02 1.02 0 100-2.04v2.04zm-2.483-2.04a1.02 1.02 0 000 2.04v-2.04zm1.463 1.02a1.02 1.02 0 002.04 0h-2.04zm2.04-2.623a1.02 1.02 0 10-2.04 0h2.04zm0 2.623a1.02 1.02 0 10-2.04 0h2.04zm-2.04 2.622a1.02 1.02 0 002.04 0h-2.04zM7.25.18A6.984 6.984 0 00.462 7.347l2.04-.054A4.944 4.944 0 017.306 2.22L7.249.18zM.462 7.293A6.984 6.984 0 007.25 14.46l.057-2.04a4.944 4.944 0 01-4.804-5.073l-2.04-.054zm6.844 7.167a6.984 6.984 0 006.786-7.167l-2.04.054A4.944 4.944 0 017.25 12.42l.057 2.04zm5.766-8.16H7.277v2.04h5.795V6.3zm7.213-3.497h-2.483v2.04h2.483v-2.04zm-2.483 0H15.32v2.04h2.483v-2.04zm1.02 1.02V1.2h-2.04v2.623h2.04zm-2.04 0v2.622h2.04V3.823h-2.04z" fill="#67718E"/></svg>
